X: 39159
T: Sweets Of May, The
R: jig
M: 6/8
K: Gmajor
|:d2 c|BAG AGF|G2 G G2 A|BcB GAB|c3 d2 c|
BAG AGF|G2 G G2 A|BdB cAF|G3:|
|:G2 A|ABA A2 G|E2 F G3|ABA c2 d|e2 d c2 B|
ABA A2 G|E2 F G3|A2 A BAG|A3:|
ABc|d3 d3|D3 D3|c3 c3|D3 D3|
G2 D G2 A|B2 G B2 c|ded cBA|G3 GBc|
ded dBG|D3 D3|cdc cAF|D3 DEF|
G2 D G2 A|B2 G B2 c|ded cBA|G3||

